X:1
T:Eight Hours
M:6/8
L:1/4
K:G
 D/2| G G/2 G B/2| d c/2 B G/2| A A/2 A B/2| c3/2 B A/2| F E/2 D E/2|\
 F G/2 A B/2| c B/2 d c/2| B3/2- B D/2| G G/2 G B/2| d c/2 B G/2| G G/2 G A/2|\
 B3/2 B B/2| A A/2 A A/2| G G/2 c e/2| d A/2 d c/2| B3/2- B B/2| A A/2 A A/2|\
 G G/2 G B/2| A A/2 d c/2| B3| d3/2 d G/2| G3| d3/2 d A/2| A3| d3/2 d B/2|\
 B3/2 A- G/2| A3-| A3/2 A/2A/2A/2| B3/2 B/2A/2B/2| c3/2 e3/2| d3/2 c/2B/2A/2|\
 G3/2- G||
